icons/Business/profile-fill.svg

<svg viewBox="0 0 24 24" xmlns="http://www.w3.org/2000/svg"><path d="M2 3.9934C2 3.44476 2.45531 3 2.9918 3H21.0082C21.556 3 22 3.44495 22 3.9934V20.0066C22 20.5552 21.5447 21 21.0082 21H2.9918C2.44405 21 2 20.5551 2 20.0066V3.9934ZM6 15V17H18V15H6ZM6 7V13H12V7H6ZM14 7V9H18V7H14ZM14 11V13H18V11H14ZM8 9H10V11H8V9Z"/></svg>

<svg xmlns="http://www.w3.org/2000/svg" viewBox="0 0 24 24">
    <g>
        <path fill="none" d="M0 0h24v24H0z"/>
        <path d="M2 3.993A1 1 0 0 1 2.992 3h18.016c.548 0 .992.445.992.993v16.014a1 1 0 0 1-.992.993H2.992A.993.993 0 0 1 2 20.007V3.993zM6 15v2h12v-2H6zm0-8v6h6V7H6zm8 0v2h4V7h-4zm0 4v2h4v-2h-4zM8 9h2v2H8V9z"/>
    </g>
</svg>
